**kern	**kern
*part1	*part1
*staff2	*staff1
*I"Piano	*
*clefF4	*clefC1
*k[f#]	*k[f#]
=1	=1
4AA	(8gL 8b
.	8f#) 8a
8r	8f#J 8a
4AA	4f# 4a
8AA#X	8e 8g
=	=
.	8qqf#/ 8qqa
[4.BB	4.e 4.g
4BB]	4d#X 4f#
8r	8d# 8f#
=	=
4BB	8eL 8g
.	8d#X 8f#
8r	8eJ 8g
4BB	8gL 8b
.	8f# 8a
8r	8eJ 8g
=	=
4BB	8gL 8b
.	8f# 8a
8r	8eJ 8g
4BB	4d#X 4f#
8r	8d# 8f#
=	=
4BB	8r
.	8eL 8g
8r	8eJ 8g
4AA#X	4e 4g
8r	16eLL 16g
.	16bJJ
=	=
4.BB	(4f# 4a
.	8e) 8g
4BB	4d#X 4f#
8r	8g 8b
=	=
4E	8.aL 8.cc
.	16gK 16b
8r	8aJ 8cc
4E	8.f#L 8.a 8.dd#X
.	16cc#XK
8r	8dd#J
=	=
*-	*-
!!!system-decoration: {(s1,s2)}
